X:119
T:Reel de Drummondville
Z:robin.beech@mcgill.ca
S:Laurence Beaudry
M:4/4
L:1/8
K:G
B,DG,D B,DG,D | CDEF GBAG | FADA FADA | GABc dBAG | 
B,DG,D B,DG,D | CDEF GBAG | FADA FADA |1 GBAF G4 :|2 GBAF G2Bc |: 
dgga gBdg | bgdg ecAG | FGAB cAFA | fedf edBc |
dgga gBdg | bgdg ecAG |1 FGAB cAFA | GBAF G2Bc :|2 FGAB AGFE |  DCB,A, G,4 |]

